svg/food/bread_fill.svg

<?xml version="1.0" encoding="UTF-8"?>
<svg width="24px" height="24px" viewBox="0 0 24 24" version="1.1" xmlns="http://www.w3.org/2000/svg" xmlns:xlink="http://www.w3.org/1999/xlink">
    <title>bread_fill</title>
    <g id="页面-1" stroke="none" stroke-width="1" fill="none" fill-rule="evenodd">
        <g id="Food" transform="translate(-48.000000, -48.000000)">
            <g id="bread_fill" transform="translate(48.000000, 48.000000)">
                 <path d="M24,0 L24,24 L0,24 L0,0 L24,0 Z M12.5934901,23.257841 L12.5819402,23.2595131 L12.5108777,23.2950439 L12.4918791,23.2987469 L12.4918791,23.2987469 L12.4767152,23.2950439 L12.4056548,23.2595131 C12.3958229,23.2563662 12.3870493,23.2590235 12.3821421,23.2649074 L12.3780323,23.275831 L12.360941,23.7031097 L12.3658947,23.7234994 L12.3769048,23.7357139 L12.4804777,23.8096931 L12.4953491,23.8136134 L12.4953491,23.8136134 L12.5071152,23.8096931 L12.6106902,23.7357139 L12.6232938,23.7196733 L12.6232938,23.7196733 L12.6266527,23.7031097 L12.609561,23.275831 C12.6075724,23.2657013 12.6010112,23.2592993 12.5934901,23.257841 L12.5934901,23.257841 Z M12.8583906,23.1452862 L12.8445485,23.1473072 L12.6598443,23.2396597 L12.6498822,23.2499052 L12.6498822,23.2499052 L12.6471943,23.2611114 L12.6650943,23.6906389 L12.6699349,23.7034178 L12.6699349,23.7034178 L12.678386,23.7104931 L12.8793402,23.8032389 C12.8914285,23.8068999 12.9022333,23.8029875 12.9078286,23.7952264 L12.9118235,23.7811639 L12.8776777,23.1665331 C12.8752882,23.1545897 12.8674102,23.1470016 12.8583906,23.1452862 L12.8583906,23.1452862 Z M12.1430473,23.1473072 C12.1332178,23.1423925 12.1221763,23.1452606 12.1156365,23.1525954 L12.1099173,23.1665331 L12.0757714,23.7811639 C12.0751323,23.7926639 12.0828099,23.8018602 12.0926481,23.8045676 L12.108256,23.8032389 L12.3092106,23.7104931 L12.3186497,23.7024347 L12.3186497,23.7024347 L12.3225043,23.6906389 L12.340401,23.2611114 L12.337245,23.2485176 L12.337245,23.2485176 L12.3277531,23.2396597 L12.1430473,23.1473072 Z" id="MingCute" fill-rule="nonzero"></path>
                <path d="M14.1937,2.88504 C16.4945,2.58607 18.6518,3.09549 19.8388,4.28249 C20.6296,5.07323 21.0191,5.99325 20.9999,7.00196 C20.9815,7.96337 20.5936,8.89623 20.061,9.76635 C19.29936,11.0106333 18.1092724,12.329372 16.7917208,13.6811374 L16.0622243,14.4214903 L16.0622243,14.4214903 L14.4462642,16.037599 L14.4462642,16.037599 L13.7549026,16.7197297 C12.3773507,18.0658549 11.0332567,19.285512 9.76635,20.061 C8.89623,20.5936 7.96337,20.9815 7.00196,20.9999 C5.99325,21.0191 5.07323,20.6296 4.28249,19.8388 C3.09549,18.6518 2.58607,16.4945 2.88504,14.1937 C3.19156,11.8349 4.35621,9.15851 6.75736,6.75736 C9.15851,4.35621 11.8349,3.19156 14.1937,2.88504 Z M5.69082,11.6643 C5.32708,12.4508 5.08706,13.2212 4.94891,13.948 C5.36839,14.3077 5.86757,14.5859 6.44114,14.7771 C6.96508,14.9517 7.5314,14.6685 7.70604,14.1446 C7.88068,13.6206 7.59751,13.0543 7.07357,12.8797 C6.40714,12.6576 5.96194,12.2681 5.69082,11.6643 Z M8.69033,7.67865 C8.51641,7.83544 8.34337,7.99965 8.1715,8.17152 C7.84969,8.49333 7.55473,8.81926 7.28506,9.14734 C7.47926,9.39831 7.69121,9.63574 7.90638,9.85091 C8.49063,10.4352 9.23896,10.9956 9.97666,11.2415 C10.5006,11.4162 11.0669,11.133 11.2416,10.6091 C11.4037286,10.1225286 11.1711214,9.59948418 10.717601,9.3874195 L10.6091,9.34416 C10.2861,9.2365 9.79701,8.91311 9.3206,8.4367 C9.06213,8.17823 8.8487,7.91603 8.69033,7.67865 Z M13.1113,5.14906 C12.4928,5.32735 11.852,5.57939 11.2039,5.91717 C11.7236,6.7636 12.5026,7.36948 13.5122,7.70599 C14.0362,7.88063 14.6025,7.59746 14.7771,7.07352 C14.9517,6.54957 14.6686,5.98326 14.1446,5.80862 C13.7108,5.664 13.3707,5.44849 13.1113,5.14906 Z" id="形状" fill="#09244B"></path>
            </g>
        </g>
    </g>
</svg>

<svg xmlns="http://www.w3.org/2000/svg" width="24" height="24"><g fill="none" fill-rule="evenodd"><path d="M24 0v24H0V0h24ZM12.593 23.258l-.011.002-.071.035-.02.004-.014-.004-.071-.035c-.01-.004-.019-.001-.024.005l-.004.01-.017.428.005.02.01.013.104.074.015.004.012-.004.104-.074.012-.016.004-.017-.017-.427c-.002-.01-.009-.017-.017-.018Zm.265-.113-.013.002-.185.093-.01.01-.003.011.018.43.005.012.008.007.201.093c.012.004.023 0 .029-.008l.004-.014-.034-.614c-.003-.012-.01-.02-.02-.022Zm-.715.002a.023.023 0 0 0-.027.006l-.006.014-.034.614c0 .012.007.02.017.024l.015-.002.201-.093.01-.008.004-.011.017-.43-.003-.012-.01-.01-.184-.092Z"/><path fill="#09244B" d="M14.194 2.885c2.3-.299 4.458.21 5.645 1.397.79.791 1.18 1.711 1.16 2.72-.017.961-.405 1.894-.938 2.764-.762 1.245-1.952 2.563-3.27 3.915l-.729.74-1.616 1.617-.691.682c-1.378 1.346-2.722 2.566-3.989 3.341-.87.533-1.803.92-2.764.939-1.009.02-1.929-.37-2.72-1.161-1.187-1.187-1.696-3.344-1.397-5.645.307-2.36 1.471-5.035 3.872-7.437 2.402-2.4 5.078-3.565 7.437-3.872Zm-8.503 8.78a9.822 9.822 0 0 0-.742 2.283c.42.36.919.638 1.492.83a1 1 0 0 0 .633-1.898c-.667-.222-1.112-.612-1.383-1.216Zm3-3.986a13.829 13.829 0 0 0-1.406 1.468c.194.251.406.489.621.704.585.584 1.333 1.145 2.07 1.39a1 1 0 0 0 .742-1.854l-.109-.043c-.323-.107-.812-.43-1.288-.907a5.096 5.096 0 0 1-.63-.758Zm4.42-2.53c-.618.178-1.259.43-1.907.768.52.847 1.299 1.452 2.308 1.789a1 1 0 1 0 .633-1.897c-.434-.145-.774-.36-1.034-.66Z"/></g></svg>
